public/img/wappalyzer.svg

<svg fill="none" height="24" viewBox="0 0 24 24" width="24" xmlns="http://www.w3.org/2000/svg"><g clip-rule="evenodd" fill-rule="evenodd"><path d="m11.9999 17.4083-9.73864-5.0579-1.26087.9045-.00039.5533 10.9999 7.8926 10.9994-7.8922.0007-.5531-1.2614-.9051z" fill="#1c0172"/><path d="m11.9999 3-10.99932 7.8922-.00058.5533 10.9999 7.8927 10.9994-7.8923.0005-.5533z" fill="#4608ad"/><path d="m13.439 10.7892-1.3411-1.85036 1.1434-.83716 2.3838 3.52982-.96.7031-2.5636-1.061-.011.0079 1.46 1.869-.96.7028-4.82188-1.7453 1.14707-.8399 2.52061.9821.0143-.0106-1.3988-1.8032.9025-.66058 2.4702 1.02398z" fill="#fff"/></g></svg>

<svg width="24" height="24" viewBox="0 0 24 24" fill="none" xmlns="http://www.w3.org/2000/svg">
<path fill-rule="evenodd" clip-rule="evenodd" d="M11.9999 17.4083L2.26126 12.3504L1.00039 13.2549L1 13.8082L11.9999 21.7008L22.9993 13.8086L23 13.2555L21.7386 12.3504L11.9999 17.4083Z" fill="#1C0172"/>
<path fill-rule="evenodd" clip-rule="evenodd" d="M11.9999 3L1.00058 10.8922L1 11.4455L11.9999 19.3382L22.9993 11.4459L22.9998 10.8926L11.9999 3Z" fill="#4608AD"/>
<path fill-rule="evenodd" clip-rule="evenodd" d="M13.439 10.7892L12.0979 8.93884L13.2413 8.10168L15.6251 11.6315L14.6651 12.3346L12.1015 11.2736L12.0905 11.2815L13.5505 13.1505L12.5905 13.8533L7.76862 12.108L8.91569 11.2681L11.4363 12.2502L11.4506 12.2396L10.0518 10.4364L10.9543 9.77582L13.4245 10.7998L13.439 10.7892Z" fill="white"/>
</svg>
